src/icons/svg/bug.svg

<?xml version="1.0" encoding="UTF-8" standalone="no"?>
<svg width="128px" height="128px" viewBox="0 0 128 128" version="1.1" xmlns="http://www.w3.org/2000/svg" xmlns:xlink="http://www.w3.org/1999/xlink">
    <!-- Generator: Sketch 40 (33762) - http://www.bohemiancoding.com/sketch -->
    <title>bug</title>
    <desc>Created with Sketch.</desc>
    <defs></defs>
    <g id="Page-1" stroke="none" stroke-width="1" fill="none" fill-rule="evenodd">
        <g id="bug" fill="#000000">
            <path d="M127.880225,73.1428572 C127.880225,74.555376 127.374293,75.7782832 126.36243,76.8115789 C125.350568,77.8448747 124.153026,78.3615225 122.769807,78.3615225 L104.883344,78.3615225 C104.883344,87.6577051 103.099808,95.5396294 99.5327361,102.007295 L116.141595,119.051457 C117.153457,120.084752 117.659389,121.30766 117.659389,122.720178 C117.659389,124.132697 117.153457,125.355604 116.141595,126.3889 C115.184243,127.422196 113.986702,127.938844 112.548971,127.938844 C111.11124,127.938844 109.913699,127.422196 108.956347,126.3889 L93.1447138,110.325848 C92.8789721,110.597219 92.4803595,110.950348 91.948876,111.385237 C91.4173925,111.820126 90.2999145,112.594228 88.5964419,113.707543 C86.8929692,114.820859 85.162241,115.812405 83.4042573,116.682182 C81.6462735,117.55196 79.464125,118.339979 76.8578118,119.046238 C74.2514987,119.752497 71.6690341,120.105627 69.1104182,120.105627 L69.1104182,47.0443115 L58.8895823,47.0443115 L58.8895823,120.105627 C56.1742468,120.105627 53.4725392,119.738581 50.7844593,119.004489 C48.0963795,118.270396 45.7813602,117.372786 43.8394014,116.311657 C41.8974426,115.250529 40.1411622,114.19114 38.5705604,113.13349 C36.9999586,112.075841 35.8415972,111.192147 35.0954763,110.482408 L33.8996385,109.33952 L19.2889536,126.216684 C18.2225797,127.357832 16.9449752,127.928406 15.4561402,127.928406 C14.1785356,127.928406 13.033802,127.493518 12.0219393,126.62374 C11.0100766,125.64611 10.4649653,124.437119 10.3866056,122.996768 C10.3082458,121.556416 10.7204862,120.291759 11.6233267,119.202798 L27.7518059,100.692192 C24.6651135,94.4958964 23.1217673,87.0488609 23.1217673,78.3510852 L5.23530438,78.3510852 C3.85208459,78.3510852 2.65454332,77.8344373 1.64268059,76.8011416 C0.630817863,75.7678459 0.124886498,74.5449386 0.124886498,73.1324199 C0.124886498,71.7199011 0.630817863,70.4969938 1.64268059,69.4636981 C2.65454332,68.4304024 3.85208459,67.9137545 5.23530438,67.9137545 L23.1217673,67.9137545 L23.1217673,43.9392057 L9.30830756,29.8331532 C8.29644483,28.7998575 7.79051347,27.5769502 7.79051347,26.1644315 C7.79051347,24.7519127 8.29644483,23.5290055 9.30830756,22.4957098 C10.3201703,21.462414 11.5177116,20.9457662 12.9009314,20.9457662 C14.2841511,20.9457662 15.4816924,21.462414 16.4935551,22.4957098 L30.3070148,36.6017622 L97.703207,36.6017622 L111.516667,22.4957098 C112.528529,21.462414 113.726071,20.9457662 115.10929,20.9457662 C116.49251,20.9457662 117.690052,21.462414 118.701914,22.4957098 C119.713777,23.5290055 120.219708,24.7519127 120.219708,26.1644315 C120.219708,27.5769502 119.713777,28.7998575 118.701914,29.8331532 L104.888455,43.9392057 L104.888455,67.9137545 L122.774917,67.9137545 C124.158137,67.9137545 125.355679,68.4304024 126.367541,69.4636981 C127.379404,70.4969938 127.885335,71.7199011 127.885335,73.1324199 L127.880225,73.1428572 Z M89.5520899,26.1748685 L38.4479101,26.1748685 C38.4479101,18.9452774 40.9366837,12.7889918 45.9142308,7.70601168 C50.8917779,2.6230316 56.9203676,0.0815415652 64,0.0815415652 C71.0796324,0.0815415652 77.1082221,2.6230316 82.0857692,7.70601168 C87.0633163,12.7889918 89.5520899,18.9452774 89.5520899,26.1748685 L89.5520899,26.1748685 Z" id="Shape"></path>
        </g>
    </g>
</svg>

<svg width="128" height="128" xmlns="http://www.w3.org/2000/svg"><path d="M127.88 73.143c0 1.412-.506 2.635-1.518 3.669-1.011 1.033-2.209 1.55-3.592 1.55h-17.887c0 9.296-1.783 17.178-5.35 23.645l16.609 17.044c1.011 1.034 1.517 2.257 1.517 3.67 0 1.412-.506 2.635-1.517 3.668-.958 1.033-2.155 1.55-3.593 1.55-1.438 0-2.635-.517-3.593-1.55l-15.811-16.063a15.49 15.49 0 0 1-1.196 1.06c-.532.434-1.65 1.208-3.353 2.322a50.104 50.104 0 0 1-5.192 2.974c-1.758.87-3.94 1.658-6.546 2.364-2.607.706-5.189 1.06-7.748 1.06V47.044H58.89v73.062c-2.716 0-5.417-.367-8.106-1.102-2.688-.734-5.003-1.631-6.945-2.692a66.769 66.769 0 0 1-5.268-3.179c-1.571-1.057-2.73-1.94-3.476-2.65L33.9 109.34l-14.611 16.877c-1.066 1.14-2.344 1.711-3.833 1.711-1.277 0-2.422-.434-3.434-1.304-1.012-.978-1.557-2.187-1.635-3.627-.079-1.44.333-2.705 1.236-3.794l16.129-18.51c-3.087-6.197-4.63-13.644-4.63-22.342H5.235c-1.383 0-2.58-.517-3.592-1.55S.125 74.545.125 73.132c0-1.412.506-2.635 1.518-3.668 1.012-1.034 2.21-1.55 3.592-1.55h17.887V43.939L9.308 29.833c-1.012-1.033-1.517-2.256-1.517-3.669 0-1.412.505-2.635 1.517-3.668 1.012-1.034 2.21-1.55 3.593-1.55s2.58.516 3.593 1.55l13.813 14.106h67.396l13.814-14.106c1.012-1.034 2.21-1.55 3.592-1.55 1.384 0 2.581.516 3.593 1.55 1.012 1.033 1.518 2.256 1.518 3.668 0 1.413-.506 2.636-1.518 3.67l-13.814 14.105v23.975h17.887c1.383 0 2.58.516 3.593 1.55 1.011 1.033 1.517 2.256 1.517 3.668l-.005.01zM89.552 26.175H38.448c0-7.23 2.489-13.386 7.466-18.469C50.892 2.623 56.92.082 64 .082c7.08 0 13.108 2.541 18.086 7.624 4.977 5.083 7.466 11.24 7.466 18.469z" fill-rule="evenodd"/></svg>
